X:391
T:Hungry Rock, The
R:jig
S:Esbj\"orn Hazelius
S:Version 2: Breda Shannon on YouTube
D:Ash Plant: Ashplant
Z:id:hn-jig-391
M:6/8
L:1/8
K:Dmix
~A3 =cAG | AB=c A2B | ADD FED | ~G3 EFG |
~A3 =cAG | AGA d2e | fed ed^c |1 Add =cAG :|2 AB^c d2e ||
|: ~f3 fed | efg e^cA | ~d3 d^cd | e^cA ecA |
~f3 fed | efg efg | f/g/af ge^c |1 ed^c d2e :|2 ed^c d2B ||
P:variations
|: ~A3 =cAG | AB=c ABc | ADD FED | ~G3 EFG |
~A3 =cAG | ABA d2e | fdd ed^c |1 Add =cAG :|2 AB^c d2e ||
|: ~f3 fed | efg ed^c | ~d3 d^cd | efe efg |
~f3 fed | efg efg | f/g/af ge^c |1 ed^c d2e :|2 ed^c d2B ||
P:version 2
~A3 BAG | AB=c AdB | AFD FED | GFG EFG |
~A3 BAG | AB^c d2e | fed ed^c | A2B =cAG |
~A3 BAG | AB=c AdB | AFD A,DF | GFG EFG |
~A3 BAG | AB^c d2e | fed ed^c | AB^c d2e ||
|: fgf fed | efg ed^c | Add d^cd | e^cA ^cde |
fgf fed | efg eag | fef ge^c |1 ed^c d2e :|2 ed^c d2B ||

